X:1
T:Title
%%score { ( 1 3 4 ) | ( 2 5 6 ) }
L:1/8
Q:1/4=88
M:4/4
K:Bb
V:1 treble nm="Grand Piano"
V:3 treble 
V:4 treble 
V:2 bass 
V:5 bass 
V:6 bass 
V:1
 B3 B/B/ B3 B/B/ |[M:7/8] B_AF D B,3 |[M:1/8] B | %3
w: C.~Austin~Miles * * * * *|||
[M:4/4] [EGc][EGB][EGc][EGB] .[EG]2[K:bass] z[K:treble] B | [EGc][EGB][EGc][EGB] [DF_A]3 c | %5
w: ||
 [F_Ad][FAc][FAd][FAc] .[DFA]2[K:bass] z[K:treble] A | [F_Ac][FAd][FAc][DFA] [B,EG]3 B | %7
w: ||
[M:7/8] [EGc][EGB][EGc] [EGB][B,EG] G2 |[M:1/8] G |[M:4/4] GG_AB c3 c | eedc d B2 B | %11
w: ||||
[M:7/8] [Gc][Gc][EFA] [EFA] [DFB]3 |[M:1/8] B |[M:4/4] e2 z2 e2 z2 | %14
w: |||
 [B,EG][B,EG][A,E^F][B,EG] [CD=F_A]3 A | ddcB d d2 B | [Gc][GB][Gc][GB] G3 B | e2 z2 e2 z2 | %18
w: ||||
 GG_AB c3 c | eedc eB z A | .B2 z d .[Ge]2 z2 |] %21
w: |||
V:2
 [B,,B,]3 [B,,B,]/[B,,B,]/ [B,,B,]3 [B,,B,]/[B,,B,]/ | %1
[M:7/8] [B,,B,][_A,,_A,][F,,F,] [D,,D,] B,,3 |[M:1/8] z |[M:4/4] z4 z .E3 | %4
 [E,,E,]2 [B,,,B,,]2 [F,,F,]2 z [F_A] | z4 z .[DF]3 | [F,,F,]2 [B,,,B,,]2 [E,,E,]2 z [EG] | %7
[M:7/8] [E,,E,]2 [B,,,B,,]2 z [_A,E]2 |[M:1/8] [E,B,E] | %9
[M:4/4] [E,B,E][E,B,E][F,B,D][K:treble][G,B,_D] [_A,C]3 [A,CE] | %10
 [A,CF][A,CF][B,F][F,A,F] [B,F] [B,DF]2 [B,DF] |[M:7/8][K:bass] [E,E][E,E]F, F,B, _A,G, | %12
[M:1/8] [F,,F,] |[M:4/4] z [EG] [B,,,B,,]2 z [EG] [B,,,B,,]2 | %14
 [E,,E,]2 [B,,,B,,]2 [F,,F,]2 z[K:treble] [B,DF] | %15
 [B,F_A][B,FA][B,EA][B,DA] [B,FA] [B,FA]2 [B,DA] | [E,E][E,E][E,E][E,E] [E,B,E]4 | %17
 z [EG] [B,,,B,,]2 z[K:treble] [EG][EG][K:bass][E,B,E] | %18
 [E,B,E][E,B,E][F,B,D][G,B,_D][K:treble] [_A,C]3 [A,E] | %19
 [A,C^F][A,CF][A,DF][A,EF] [B,EG][B,EG] z [=B,EF] | .[B,EG]2 z [B,F_A][K:bass] .[E,E]2 z2 |] %21
V:3
 x8 |[M:7/8] x7 |[M:1/8] x |[M:4/4] z4 z .G3[K:bass][K:treble] | x8 | z4 z ._A3[K:bass][K:treble] | %6
 x8 |[M:7/8] x7 |[M:1/8] x |[M:4/4] x8 | x8 |[M:7/8] x7 |[M:1/8] x | %13
[M:4/4] z B[EGB]B z B[EGB][B,EG] | x8 | x8 | x8 | z B[EGB]B z BBG | x8 | x8 | x8 |] %21
V:4
 x8 |[M:7/8] x7 |[M:1/8] x |[M:4/4] z4 z2[K:bass] B,,2[K:treble] | x8 | %5
 z4 z2[K:bass] B,,2[K:treble] | x8 |[M:7/8] x7 |[M:1/8] x |[M:4/4] x8 | x8 |[M:7/8] x7 |[M:1/8] x | %13
[M:4/4] x8 | x8 | x8 | x8 | x8 | x8 | x8 | x8 |] %21
V:5
 x8 |[M:7/8] x7 |[M:1/8] x |[M:4/4] [E,,E,]2 [B,,,B,,]2 z2 z [EG] | z4 z2 [B,,,B,,]2 | %5
 [F,,F,]2 [B,,,B,,]2 z2 z [DF] | z4 z2 [B,,,B,,]2 |[M:7/8] z z z2 [E,,E,]3 |[M:1/8] x | %9
[M:4/4] x3[K:treble] x5 | x8 |[M:7/8][K:bass] x7 |[M:1/8] x |[M:4/4] [E,,E,]2 z2 [E,,E,]2 z2 | %14
 x7[K:treble] x | x8 | x8 | [E,,E,]2 z2 [E,,E,]4[K:treble][K:bass] | x4[K:treble] x4 | x8 | %20
 x4[K:bass] x4 |] %21
V:6
 x8 |[M:7/8] x7 |[M:1/8] x |[M:4/4] z4 [E,,E,]2 B,,,2 | x8 | z4 [F,,F,]2 B,,,2 | x8 |[M:7/8] x7 | %8
[M:1/8] x |[M:4/4] x3[K:treble] x5 | x8 |[M:7/8][K:bass] x7 |[M:1/8] x |[M:4/4] x8 | %14
 x7[K:treble] x | x8 | x8 | x5[K:treble] x2[K:bass] x | x4[K:treble] x4 | x8 | x4[K:bass] x4 |] %21

